X: 109
T: Far From Home
M: 4/4
L: 1/8
R: reel
K:Gmaj
"G"GEDE G2GA|B2BA Bcd2|GEDE ~G3B|"D"A2AB AGED|
"G"GEDE G2GA|B2BA Bcd2|"C"edef gedc|1"G"BGAF G2 BA :|2"G" BGAF G2Bd||
|: "G"~g3e "D"~f3d|"C"edef "G"edB2|gedB G2GB|"D"A2AB AGED|
"G"GEDE G2GA|B2BA Bcd2|"C"edef gedc|"G"BGAF G4:|]


